icons/lines/tag.svg

<svg xmlns="http://www.w3.org/2000/svg" width="24" height="24" viewBox="0 0 24 24" fill="none" stroke="currentColor" stroke-width="2" stroke-linecap="round" stroke-linejoin="round" >
  <path d="M4.16989 15.3L8.69989 19.83C10.5599 21.69 13.5799 21.69 15.4499 19.83L19.8399 15.44C21.6999 13.58 21.6999 10.56 19.8399 8.69005L15.2999 4.17005C14.3499 3.22005 13.0399 2.71005 11.6999 2.78005L6.69989 3.02005C4.69989 3.11005 3.10989 4.70005 3.00989 6.69005L2.76989 11.69C2.70989 13.04 3.21989 14.35 4.16989 15.3Z"/>
  <path d="M9.5 12.0001C10.8807 12.0001 12 10.8808 12 9.50006C12 8.11935 10.8807 7.00006 9.5 7.00006C8.11929 7.00006 7 8.11935 7 9.50006C7 10.8808 8.11929 12.0001 9.5 12.0001Z"/>
  </svg>

<svg xmlns="http://www.w3.org/2000/svg" width="24" height="24" viewBox="0 0 24 24" fill="none" stroke="currentColor" stroke-width="2" stroke-linecap="round" stroke-linejoin="round">
  <path d="M8.7 19.83a4.78 4.78 0 0 0 6.75 0l4.39-4.39a4.78 4.78 0 0 0 0-6.75L15.3 4.17a4.75 4.75 0 0 0-3.6-1.39l-5 .24a3.864 3.864 0 0 0-3.69 3.67l-.24 5a4.8 4.8 0 0 0 1.4 3.61z" />
  <circle cx="9.5" cy="9.5" r="2.5" />
</svg>
